resources/assets/svg/twitter.svg

<?xml version="1.0" encoding="UTF-8"?>
<svg width="20px" height="20px" viewBox="0 0 20 20" version="1.1" xmlns="http://www.w3.org/2000/svg" xmlns:xlink="http://www.w3.org/1999/xlink" xmlns:sketch="http://www.bohemiancoding.com/sketch/ns">
    <!-- Generator: Sketch 3.4.2 (15855) - http://www.bohemiancoding.com/sketch -->
    <title>twitter</title>
    <desc>Created with Sketch.</desc>
    <defs></defs>
    <g id="Page-1" stroke="none" stroke-width="1" fill="none" fill-rule="evenodd" sketch:type="MSPage">
        <g id="twitter" sketch:type="MSArtboardGroup" fill="#4D4D4D">
            <path d="M20,3.92893401 C19.4331641,4.75803723 18.7478849,5.46446701 17.9441624,6.04822335 C17.9526227,6.16666667 17.9568528,6.34433164 17.9568528,6.58121827 C17.9568528,7.68104907 17.7961083,8.77876481 17.4746193,9.87436548 C17.1531303,10.9699662 16.6645516,12.0211506 16.0088832,13.0279188 C15.3532149,14.034687 14.572758,14.9251269 13.6675127,15.6992386 C12.7622673,16.4733503 11.6708968,17.0909475 10.393401,17.5520305 C9.11590525,18.0131134 7.74957699,18.2436548 6.29441624,18.2436548 C4.00169205,18.2436548 1.9035533,17.6302876 0,16.4035533 C0.296108291,16.4373942 0.62605753,16.4543147 0.989847716,16.4543147 C2.89340102,16.4543147 4.58967851,15.8705584 6.0786802,14.7030457 C5.19035533,14.6861252 4.39509306,14.4132826 3.6928934,13.8845178 C2.99069374,13.355753 2.50846024,12.6810491 2.24619289,11.8604061 C2.52538071,11.9027073 2.78341794,11.9238579 3.02030457,11.9238579 C3.38409475,11.9238579 3.74365482,11.8773266 4.09898477,11.784264 C3.15143824,11.5896785 2.36675127,11.1180203 1.74492386,10.3692893 C1.12309645,9.62055838 0.812182741,8.75126904 0.812182741,7.76142132 L0.812182741,7.7106599 C1.38747885,8.0321489 2.00507614,8.20558376 2.66497462,8.23096447 C2.10659898,7.85871404 1.66243655,7.37225042 1.33248731,6.7715736 C1.00253807,6.17089679 0.837563452,5.51945854 0.837563452,4.81725888 C0.837563452,4.07275804 1.02368866,3.38324873 1.39593909,2.74873096 C2.41962775,4.00930626 3.66539763,5.01818951 5.13324873,5.77538071 C6.60109983,6.53257191 8.17258883,6.9534687 9.84771574,7.03807107 C9.78003384,6.71658206 9.74619289,6.4035533 9.74619289,6.09898477 C9.74619289,4.96531303 10.1459391,3.99873096 10.9454315,3.19923858 C11.7449239,2.39974619 12.7115059,2 13.8451777,2 C15.0296108,2 16.0279188,2.43147208 16.8401015,3.29441624 C17.7622673,3.11675127 18.6294416,2.78680203 19.4416244,2.30456853 C19.1285956,3.27749577 18.5279188,4.03045685 17.6395939,4.56345178 C18.4263959,4.47884941 19.213198,4.26734349 20,3.92893401 L20,3.92893401 Z" sketch:type="MSShapeGroup"></path>
        </g>
    </g>
</svg>

<svg width="20" height="20" viewBox="0 0 20 20" xmlns="http://www.w3.org/2000/svg"><title>twitter</title><path d="M20 3.93c-.567.828-1.252 1.534-2.056 2.118.01.12.013.296.013.533 0 1.1-.16 2.2-.482 3.294-.322 1.096-.81 2.147-1.466 3.154-.657 1.007-1.437 1.897-2.342 2.67-.906.775-1.997 1.393-3.275 1.854-1.277.46-2.643.692-4.1.692-2.29 0-4.39-.614-6.293-1.84.296.033.626.05.99.05 1.903 0 3.6-.583 5.09-1.75-.89-.018-1.685-.29-2.387-.82-.702-.528-1.185-1.203-1.447-2.024.28.043.537.064.774.064.364 0 .724-.047 1.08-.14-.95-.194-1.733-.666-2.355-1.415-.622-.75-.933-1.62-.933-2.61v-.05c.575.322 1.193.496 1.853.52-.558-.37-1.003-.858-1.333-1.458-.33-.6-.494-1.253-.494-1.955 0-.744.186-1.434.558-2.068 1.024 1.26 2.27 2.268 3.737 3.025 1.468.758 3.04 1.178 4.715 1.263-.068-.32-.102-.634-.102-.94 0-1.133.4-2.1 1.2-2.9C11.745 2.4 12.71 2 13.845 2c1.184 0 2.182.43 2.994 1.294.922-.177 1.79-.507 2.602-.99-.313.973-.914 1.726-1.802 2.26.786-.085 1.573-.297 2.36-.635z" fill="#4D4D4D" fill-rule="evenodd"/></svg>
